newicons/emoji_circus_tent.svg

<?xml version="1.0" encoding="UTF-8" standalone="no"?>
<svg
   version="1.2"
   viewBox="0 0 48 48"
   id="svg8"
   xmlns="http://www.w3.org/2000/svg"
   xmlns:svg="http://www.w3.org/2000/svg">
  <defs
     id="defs1" />
  <path
     d="M 24,12.648515 5.4999995,23.243234 H 42.5 L 24,12.648515"
     fill="none"
     stroke="#ffffff"
     stroke-linecap="round"
     stroke-linejoin="round"
     stroke-width="1.1339"
     id="path1"
     style="stroke-width:1;stroke-dasharray:none" />
  <path
     d="M 24,12.648515 12.295918,23.243234 H 35.704081 L 24,12.648515"
     fill="none"
     stroke="#ffffff"
     stroke-linecap="round"
     stroke-linejoin="round"
     stroke-width="1.1339"
     id="path2"
     style="stroke-width:1;stroke-dasharray:none" />
  <path
     d="m 24,12.648515 -4.153062,10.594719 h 8.306123 L 24,12.648515"
     fill="none"
     stroke="#ffffff"
     stroke-linecap="round"
     stroke-linejoin="round"
     stroke-width="1.1339"
     id="path3"
     style="stroke-width:1;stroke-dasharray:none" />
  <path
     d="m 24,27.027062 -2.265307,8.324423 h 4.530613 L 24,27.027062"
     fill="none"
     stroke="#ffffff"
     stroke-linecap="round"
     stroke-linejoin="round"
     stroke-width="1.1339"
     id="path4"
     style="stroke-width:1;stroke-dasharray:none" />
  <path
     d="M 5.4999995,23.243234 H 42.5 V 35.351485 H 5.4999995 V 23.243234"
     fill="none"
     stroke="#ffffff"
     stroke-linecap="round"
     stroke-linejoin="round"
     stroke-width="1.1339"
     id="path5"
     style="stroke-width:1;stroke-dasharray:none" />
  <path
     d="M 12.673469,23.243234 H 35.326531 V 35.351485 H 12.673469 V 23.243234"
     fill="none"
     stroke="#ffffff"
     stroke-linecap="round"
     stroke-linejoin="round"
     stroke-width="1.1339"
     id="path6"
     style="stroke-width:1;stroke-dasharray:none" />
  <path
     d="m 19.846938,23.243234 h 8.306123 V 35.351485 H 19.846938 V 23.243234"
     fill="none"
     stroke="#ffffff"
     stroke-linecap="round"
     stroke-linejoin="round"
     stroke-width="1.1339"
     id="path7"
     style="stroke-width:1;stroke-dasharray:none" />
  <path
     d="m 24,27.027062 v 0 8.324423 0 -8.324423"
     fill="none"
     stroke="#ffffff"
     stroke-linecap="round"
     stroke-linejoin="round"
     stroke-width="1.1339"
     id="path8"
     style="stroke-width:1;stroke-dasharray:none" />
</svg>

<?xml version="1.0" encoding="UTF-8"?><svg id="b" xmlns="http://www.w3.org/2000/svg" viewBox="0 0 48 48"><defs><style>.k{fill:none;stroke:#fff;stroke-linecap:round;stroke-linejoin:round;}</style></defs><path id="c" class="k" d="m24,12.6485L5.5,23.2432h37l-18.5-10.5947"/><path id="d" class="k" d="m24,12.6485l-11.7041,10.5947h23.4082l-11.7041-10.5947"/><path id="e" class="k" d="m24,12.6485l-4.1531,10.5947h8.3061l-4.1531-10.5947"/><path id="f" class="k" d="m24,27.0271l-2.2653,8.3244h4.5306l-2.2653-8.3244"/><path id="g" class="k" d="m5.5,23.2432h37v12.1083H5.5v-12.1083"/><path id="h" class="k" d="m12.6735,23.2432h22.6531v12.1083H12.6735v-12.1083"/><path id="i" class="k" d="m19.8469,23.2432h8.3061v12.1083h-8.3061v-12.1083"/><path id="j" class="k" d="m24,27.0271h0v8.3244h0v-8.3244"/></svg>
